public/icons/13d.svg

<svg width="240" height="240" viewBox="0 0 240 240" fill="none" xmlns="http://www.w3.org/2000/svg">
<path fill-rule="evenodd" clip-rule="evenodd" d="M195 95.7143C195 96.3449 194.99 96.9731 194.969 97.5987C203.917 102.424 210 111.908 210 122.818C210 138.619 197.24 151.429 181.5 151.429H139.575L139.5 151.429H138.365C139.124 150.901 143.87 147.602 145.121 146.776C147.544 148.434 150.803 148.666 153.517 147.103C156.267 145.519 157.697 142.528 157.42 139.566C159.019 138.628 159.069 138.724 159.069 138.724C162.827 136.56 164.116 131.753 161.944 128C159.772 124.249 154.958 122.954 151.194 125.121C151.194 125.121 151.018 125.257 149.49 126.019C147.072 124.392 143.839 124.174 141.143 125.727C138.415 127.298 136.986 130.255 137.234 133.194C135.833 134.03 129.875 137.647 129.875 137.647C129.875 137.647 129.891 129.943 129.958 128.886C132.574 127.609 134.374 124.93 134.374 121.829C134.374 118.692 132.526 115.982 129.857 114.725C129.896 113.348 129.875 112.845 129.875 112.845C129.875 108.517 126.345 105 122 105C117.657 105 114.125 108.51 114.125 112.845C114.125 112.845 114.145 113.011 114.132 114.729C111.468 115.988 109.626 118.693 109.626 121.829C109.626 124.977 111.486 127.694 114.17 128.946C114.097 131.009 114.125 137.647 114.125 137.647C114.125 137.647 108.251 134.188 106.772 133.141C106.999 130.219 105.571 127.29 102.857 125.727C100.152 124.169 96.901 124.396 94.479 126.042C92.95 125.273 92.8061 125.121 92.8061 125.121C89.0481 122.957 84.229 124.247 82.0564 128C79.8847 131.751 81.1673 136.557 84.9314 138.724C84.9314 138.724 85.2887 138.723 86.5738 139.618C86.3178 142.563 87.7466 145.527 90.4827 147.103C93.2088 148.672 96.4882 148.43 98.9159 146.749C99.6612 147.35 105.709 150.881 106.649 151.429L69 151.429C47.4609 151.429 30 133.9 30 112.278C30 90.6557 47.4609 73.1274 69 73.1274C75.4999 73.1274 81.6283 74.7236 87.0176 77.5468C94.5218 55.6968 115.185 40 139.5 40C170.152 40 195 64.9441 195 95.7143Z" fill="white"/>
<path fill-rule="evenodd" clip-rule="evenodd" d="M118.731 175.869V125.917H117.645C115.837 125.917 114.372 124.455 114.372 122.659C114.372 120.86 115.835 119.402 117.645 119.402H118.731V113.964C118.731 112.169 120.198 110.714 122 110.714C123.806 110.714 125.269 112.178 125.269 113.964V119.402H126.355C128.163 119.402 129.628 120.864 129.628 122.659C129.628 124.459 128.166 125.917 126.355 125.917H125.269V175.869H126.355C128.163 175.869 129.628 177.331 129.628 179.127C129.628 180.926 128.166 182.384 126.355 182.384H125.269V187.822C125.269 189.617 123.802 191.071 122 191.071C120.195 191.071 118.731 189.608 118.731 187.822V182.384H117.645C115.837 182.384 114.372 180.922 114.372 179.127C114.372 177.327 115.835 175.869 117.645 175.869H118.731Z" fill="white"/>
<path fill-rule="evenodd" clip-rule="evenodd" d="M101.929 135.584L145.341 160.56L145.884 159.622C146.788 158.062 148.791 157.529 150.352 158.427C151.915 159.326 152.451 161.318 151.546 162.88L151.003 163.817L155.729 166.536C157.289 167.433 157.82 169.427 156.919 170.982C156.016 172.54 154.012 173.072 152.46 172.179L147.734 169.46L147.191 170.397C146.287 171.957 144.284 172.49 142.723 171.593C141.16 170.693 140.624 168.701 141.529 167.139L142.072 166.202L98.6595 141.226L98.1165 142.164C97.2127 143.723 95.2093 144.257 93.6488 143.359C92.0852 142.459 91.549 140.468 92.454 138.906L92.9971 137.969L88.2713 135.25C86.7115 134.352 86.1808 132.359 87.0817 130.804C87.9845 129.245 89.9881 128.714 91.5405 129.607L96.2663 132.326L96.8093 131.389C97.7131 129.829 99.7165 129.295 101.277 130.193C102.841 131.093 103.377 133.084 102.472 134.646L101.929 135.584Z" fill="white"/>
<path fill-rule="evenodd" clip-rule="evenodd" d="M145.341 141.226L101.929 166.202L102.472 167.139C103.375 168.699 102.837 170.695 101.277 171.593C99.7133 172.492 97.7143 171.959 96.8093 170.397L96.2662 169.46L91.5405 172.179C89.9807 173.076 87.9826 172.537 87.0817 170.982C86.1789 169.424 86.7188 167.429 88.2712 166.536L92.997 163.817L92.454 162.88C91.5502 161.32 92.0883 159.325 93.6487 158.427C95.2124 157.527 97.2114 158.06 98.1164 159.622L98.6595 160.56L142.072 135.584L141.529 134.646C140.625 133.087 141.163 131.091 142.723 130.193C144.287 129.294 146.286 129.827 147.191 131.389L147.734 132.326L152.46 129.607C154.02 128.71 156.018 129.249 156.919 130.804C157.821 132.362 157.281 134.357 155.729 135.25L151.003 137.969L151.546 138.906C152.45 140.466 151.912 142.461 150.352 143.359C148.788 144.259 146.789 143.726 145.884 142.164L145.341 141.226Z" fill="white"/>
</svg>

<svg xmlns="http://www.w3.org/2000/svg" width="240" height="240" fill="#fff" fill-rule="evenodd" xmlns:v="https://vecta.io/nano"><path d="M195 95.714l-.031 1.884c8.948 4.825 15.031 14.309 15.031 25.219 0 15.801-12.76 28.611-28.5 28.611h-41.925-.075-1.135l6.756-4.653a7.89 7.89 0 0 0 8.396.327 7.85 7.85 0 0 0 3.903-7.537c1.599-.938 1.649-.842 1.649-.842 3.758-2.164 5.047-6.971 2.875-10.724a7.89 7.89 0 0 0-10.75-2.879s-.176.136-1.704.898a7.89 7.89 0 0 0-8.347-.292 7.85 7.85 0 0 0-3.909 7.467l-7.359 4.453.083-8.761c2.616-1.277 4.416-3.956 4.416-7.057 0-3.137-1.848-5.847-4.517-7.104.039-1.377.018-1.88.018-1.88 0-4.328-3.53-7.845-7.875-7.845s-7.875 3.51-7.875 7.845c0 0 .02.166.007 1.884-2.664 1.259-4.506 3.964-4.506 7.1 0 3.148 1.86 5.865 4.544 7.117-.073 2.063-.045 8.701-.045 8.701s-5.874-3.459-7.353-4.506c.227-2.922-1.201-5.851-3.915-7.414-2.705-1.558-5.956-1.331-8.378.315-1.529-.769-1.673-.921-1.673-.921a7.89 7.89 0 0 0-10.75 2.88 7.84 7.84 0 0 0 2.875 10.724s.357-.001 1.642.894c-.256 2.945 1.173 5.909 3.909 7.485 2.726 1.569 6.006 1.327 8.433-.354.745.601 6.793 4.132 7.733 4.68H69c-21.539 0-39-17.529-39-39.151s17.461-39.151 39-39.151a38.71 38.71 0 0 1 18.018 4.419C94.522 55.697 115.185 40 139.5 40c30.652 0 55.5 24.944 55.5 55.714zm-76.269 80.155v-49.952h-1.086c-1.808 0-3.273-1.462-3.273-3.258s1.463-3.257 3.273-3.257h1.086v-5.438c0-1.795 1.467-3.25 3.269-3.25s3.269 1.464 3.269 3.25v5.438h1.086c1.808 0 3.273 1.462 3.273 3.257s-1.462 3.258-3.273 3.258h-1.086v49.952h1.086c1.808 0 3.273 1.462 3.273 3.258s-1.462 3.257-3.273 3.257h-1.086v5.438c0 1.795-1.467 3.249-3.269 3.249s-3.269-1.463-3.269-3.249v-5.438h-1.086c-1.808 0-3.273-1.462-3.273-3.257s1.463-3.258 3.273-3.258h1.086z"/><path d="M101.929 135.584l43.412 24.976.543-.938a3.28 3.28 0 0 1 4.468-1.195 3.25 3.25 0 0 1 1.194 4.453l-.543.937 4.726 2.719a3.25 3.25 0 0 1 1.19 4.446 3.28 3.28 0 0 1-4.459 1.197l-4.726-2.719-.543.937a3.28 3.28 0 0 1-4.468 1.196c-1.563-.9-2.099-2.892-1.194-4.454l.543-.937-43.413-24.976-.543.938a3.28 3.28 0 0 1-4.468 1.195 3.25 3.25 0 0 1-1.195-4.453l.543-.937-4.726-2.719a3.25 3.25 0 0 1-1.19-4.446 3.28 3.28 0 0 1 4.459-1.197l4.726 2.719.543-.937a3.28 3.28 0 0 1 4.468-1.196 3.25 3.25 0 0 1 1.195 4.453l-.543.938z"/><path d="M145.341 141.226l-43.412 24.976.543.937a3.26 3.26 0 0 1-1.195 4.454c-1.564.899-3.563.366-4.468-1.196l-.543-.937-4.726 2.719c-1.56.897-3.558.358-4.459-1.197s-.363-3.553 1.189-4.446l4.726-2.719-.543-.937c-.904-1.56-.366-3.555 1.195-4.453s3.563-.367 4.468 1.195l.543.938 43.413-24.976-.543-.938c-.904-1.559-.366-3.555 1.194-4.453s3.563-.366 4.468 1.196l.543.937 4.726-2.719c1.56-.897 3.558-.358 4.459 1.197s.362 3.553-1.19 4.446l-4.726 2.719.543.937c.904 1.56.366 3.555-1.194 4.453s-3.563.367-4.468-1.195l-.543-.938z"/></svg>
